X: 27706
T: Morning Dew, The
R: reel
M: 4/4
K: Edorian
|:E3B2AFD|EDEB BAFD|E3B2AFA|BcdB AFDF:|
B2eB fBeB|B2eB AFDF|B2eB fBeB|BcdB AFDF|
B2eB fBeB|B2eB AFDF|Bdeg fdec|d2dA BAFD|
B2EB GBEB|B2EB AFDF|B2EB GBEB|BcdB AFDF|
B2EB GBEB|B2EB AFDF|Bdeg fdec|d2dA BAFD|
|:BAGF EFGA|B2GB A2GA|BAGF EFGA|BcdB AFDF:|

